X:523
T:
N:
S:Efter »Florsen» i Burs.
R:vals
O:Gotland, Burs
M:3/4
L:1/8
K:D
A2 dd dd|f2 dd dd|A2 dd dd|f2 dd dd|c2 ee ee|g2 ee ee|
c2 ee ee|g2 ee ee|A2 dd dd|f2 dd dd|A2 dd dd|f2 dd dd|
c2 ee ee|g2 ee ee|A2 B2 c2|d6::g2 gf ga|b2 a2 g2|
g2 ff ff|d4 f2|f2 ee ee|c4 e2|dc de fg|a4 f2|
g2 gf ga|b2 a2 g2|g2 ffff|d4 f2|f2 eeee|c4 e2|
g2 f2 f2|d6:|

